X: 223
T: Moonan Flat Set Tune
B: australian dance tunes
B: kameruka bush dance
M:2/4
L:1/8
Q: 1/4=100
K:D
V:1 
|:"D"A>A AA|BA FA|dc/2d/2 ed|"A7"c2 "G"B2|
"A7"gf a>g|fe dc|"G"Bg "A7"Bc|1 "G"B2 "A7"A2:|2 "D"d2 d2||
"D"F>F FF|A2 A2|AA/2d/2 FB|"A7"A2 G2| E2 EF|
G2 GA|c>B AG|"D"F2 F2|F>F FG|A2 A>B|
Ad FB|"A7"A2 G2|E2 EF|G2 GA|cA Bc|"D"d2 d2||
% abcbook-tune_id 62a078505c4230fa4b767698


% abcbook-boost 0
% abcbook-tablature 
% abcbook-transpose 
% abcbook-lastupdated 1665401688888
% abcbook-soundfonts 
% abcbook-repeats 3


